X: 34
T: Governor's Island Quickstep
O: Bruce & Emmet
%R: quickstep, reel
S: http://ancients.sudburymuster.org/mus/sng/pdf/governorsC0.pdf
Z: 2020 John Chambers <jc:trillian.mit.edu>
M: 2/4
L: 1/16
K: D
(3GFE |\
D2DD DFAF | dFAF dFAF |\
E2EF GBEG | edcB AGFE |\
D2DD DFAF |
dFAF dFAd | gbag fedc |\
d2d2 d2 :: ag |\
fddd fdad | fd (3ef^g a2ed |
cAAA ceAe | cdef g2ag |\
fddd fdad | fd (3ef^g a2=gf |\
gbag fedc | d2d2 d2 :|


